X:084
T:Prize,The TS.084
M:2/4
L:1/8
Q:1/4=110
S:Thomas Sands’ MS,1810,Lincolnshire
R:.country dance
O:England;Lincolnshire
C:Stephen Storace
Z:vmp.Ruairidh Greig, 2011
K:F
C|FF {B}AG/F/|cA Af|{g}fe/f/ {g}fe/f/|cAAC|
FF {B}AG/F/|cAAf|{g}fe/f/ c/d/c/B/|AFF:|
|:(3c/d/e/|(3fef Ff|(3gfg Gg|(3fef (3gfg|af fc|
(3fef Ff|(3gfg Gg|f/g/a/f/ c/d/c/B/|AFF:|]

